X: 41
T:Sir Charles Forbes of New & Edinglassie
B:William Marshall Volume 2nd Of A Collection Of Scottish Melodies (1845)
C:William Marshall
L:1/8
M:4/4
N:Slow with feeling
O:Scotland
R:Air
Z:Clark Bernst
%%Page:34 - 1
F:http://richardrobinson.tunebook.org.uk/tune/3884
%%TBL:{"version":1,"type":"tune","id":"3884"}
K:Ab
C [| \
F3/2G/A3/2B/ A/G/F/E/ c/B/A/G/ | F3/2G/A3/2B/ {CE}cA, cB/A/ | \
Ge {d}e^d/c/ B/A/G/F/ E3/2G/ | B/A/G/F/ A/G/F/=E/ {E}F2 FC |
F3/2G/A3/2B/ A/G/F/E/ c/B/A/G/ | F3/2G/A3/2B/ {CE}cA, cB/A/ | \
Ge {d}ed/c/ B/A/G/F/ E3/2G/ | B/A/G/F/ A/G/F/=E/ {E}F2 Fc ||
f3/2g/a3/2f/ geeg | f3/2g/a3/2f/ a/g/f/=e/ fg | \
f3/2g/ab geeg | f3/2e/c=e f2 fc |
f3/2g/a3/2f/ geeg | fagb afg=d | \
{EB}e/d/c/B/ eB GEEG | F/G/A/B/ cC {E}F2 FC |]

